client/public/assets/icons/standard/timesheet_entry.svg

<?xml version="1.0"?><svg xmlns="http://www.w3.org/2000/svg" width="100" height="100" viewBox="0 0 100 100"><path fill="#fff" d="m70.9 20h-41.8c-4.3 0-7.8 3.5-7.8 7.8v44.3c0 4.3 3.5 7.8 7.8 7.8h41.7c4.3 0 7.8-3.5 7.8-7.8v-44.3c0.1-4.3-3.4-7.8-7.7-7.8z m-2.6 47c0 1.4-1.2 2.6-2.6 2.6h-31.4c-1.4 0-2.6-1.2-2.6-2.6v-2.6c0-1.4 1.2-2.6 2.6-2.6h31.3c1.4 0 2.6 1.2 2.6 2.6v2.6z m-27.4-17l1.4-1.4c0.4-0.4 1-0.4 1.4 0l3.6 3.6 9-9c0.4-0.4 1-0.4 1.4 0l1.4 1.4c0.3 0.4 0.3 1.1 0 1.4l-10.3 10.5c-0.4 0.4-0.9 0.6-1.4 0.6-0.5 0-1-0.2-1.4-0.6l-5-5c-0.5-0.5-0.5-1.1-0.1-1.5z m27.4-14.3c0 1.4-1.2 2.6-2.6 2.6h-31.4c-1.4 0-2.6-1.2-2.6-2.6v-2.7c0-1.4 1.2-2.6 2.6-2.6h31.3c1.4 0 2.6 1.2 2.6 2.6v2.7z"></path></svg>

<?xml version="1.0" encoding="utf-8"?>
<!-- Generator: Adobe Illustrator 21.0.2, SVG Export Plug-In . SVG Version: 6.00 Build 0)  -->
<svg version="1.1" id="Layer_1" xmlns="http://www.w3.org/2000/svg" xmlns:xlink="http://www.w3.org/1999/xlink" x="0px" y="0px"
	 width="100px" height="100px" viewBox="0 0 100 100" enable-background="new 0 0 100 100" xml:space="preserve">
<path fill="#FFFFFF" d="M70.9,20H29.1c-4.3,0-7.8,3.5-7.8,7.8v44.3c0,4.3,3.5,7.8,7.8,7.8h41.7c4.3,0,7.8-3.5,7.8-7.8V27.8
	C78.7,23.5,75.2,20,70.9,20z M68.3,67c0,1.4-1.2,2.6-2.6,2.6H34.3c-1.4,0-2.6-1.2-2.6-2.6v-2.6c0-1.4,1.2-2.6,2.6-2.6h31.3
	c1.4,0,2.6,1.2,2.6,2.6V67z M40.9,50l1.4-1.4c0.4-0.4,1-0.4,1.4,0l3.6,3.6l9-9c0.4-0.4,1-0.4,1.4,0l1.4,1.4c0.3,0.4,0.3,1.1,0,1.4
	L48.8,56.5c-0.4,0.4-0.9,0.6-1.4,0.6c-0.5,0-1-0.2-1.4-0.6l-5-5C40.5,51,40.5,50.4,40.9,50z M68.3,35.7c0,1.4-1.2,2.6-2.6,2.6H34.3
	c-1.4,0-2.6-1.2-2.6-2.6V33c0-1.4,1.2-2.6,2.6-2.6h31.3c1.4,0,2.6,1.2,2.6,2.6V35.7z"/>
</svg>
